X:550
T:Miller's Maggot, The
R:jig
Z:Transcribed by Dave Marshall
M:6/8
K:G
|: G2A B2A | B2A BGE | G2A B2A | Bee dBA |
G2A B2A | ~B3 BAB | gfe dBA |1 Bee dBA :|2 Bee e2d |
|: e2f gfe | d2B BAB | e2f ~g3 | aga b3 |
e2f gfe | d2B BAG | A2B cBA |1 Bee e2d :|2 Bee dBA |
